X:1
T: Kookaburra
C: Australian Folk Song
M: 4/4
K: A clef=alto middle=c
L: 1/8
|: vee ee f2 ff | e2 c2 (e2 c2) |
w: Kook-a-bur-ra sits in the old gum tree -
"*"cc cc d2 dd | c2 A2 (c2 A2) |
w: Mer-ry mer-ry queen of the bush is she -
a4 fg af | e4 ef ed |
w: Laugh, Kook-a-bur-ra, laugh, Kook-a-bur-ra,
.c2 .A2 .A2 .A2 | A6 z2 :|
w: Gay your life must be!

